X:0560
M:6/8
L:1/8
Q:3/8=112
K:G
g   |g2f efg|dec B2c   |dBg dBG|FAA A2
f   |g2f efg|dec B2c   |dBg dBG|A3  G2::
c   |BGd d2g|BGd d2g   |fdf g2b|afd d2
c   |BGd d2g|BGd d2g   |efg A2d|BGG G2:|

